aemilian/images/svg/video-a.svg

<svg version="1.1" id="Layer_1" xmlns="http://www.w3.org/2000/svg" xmlns:xlink="http://www.w3.org/1999/xlink" x="0px" y="0px"
	 width="100%" viewBox="0 0 900 600" enable-background="new 0 0 900 600" xml:space="preserve">
<path fill="#4D792D" opacity="1.000000" stroke="none" 
	d="
M655.000000,601.000000 
	C436.666656,601.000000 218.833328,601.000000 1.000000,601.000000 
	C1.000000,401.000000 1.000000,201.000000 1.000000,1.000000 
	C301.000000,1.000000 601.000000,1.000000 901.000000,1.000000 
	C901.000000,201.000000 901.000000,401.000000 901.000000,601.000000 
	C819.166687,601.000000 737.333313,601.000000 655.000000,601.000000 
M333.876312,527.130859 
	C338.197632,527.334412 342.518463,527.702698 346.840393,527.716675 
	C406.920227,527.911011 467.000153,528.135376 527.080139,528.155945 
	C541.051025,528.160706 555.022217,527.430847 569.388428,527.145020 
	C569.921021,527.073486 570.453613,527.001892 571.876709,526.913269 
	C587.491333,526.021545 602.650085,523.241333 616.686707,515.936584 
	C637.031616,505.348877 647.682312,487.353516 652.632263,466.043640 
	C656.798889,448.105743 659.204346,429.747742 662.113647,411.531708 
	C665.443115,390.684723 668.623108,369.811157 671.589355,348.909576 
	C676.127014,316.934845 681.626465,285.044006 680.932861,252.555222 
	C680.683838,240.888657 678.158386,229.739014 673.224304,219.194824 
	C665.669678,203.050613 652.815674,192.698074 636.375305,186.650681 
	C631.990234,185.037659 629.740417,182.854935 629.038635,177.974411 
	C628.171509,171.944138 626.706543,165.804504 624.303833,160.227417 
	C617.436401,144.287216 605.406006,133.437668 589.221497,127.290627 
	C586.339355,126.195976 585.275879,124.707718 584.855225,121.583244 
	C584.151978,116.360474 583.302673,110.905739 581.145203,106.172981 
	C570.483337,82.783890 551.783020,70.633186 526.299133,70.406967 
	C476.138062,69.961693 425.968475,70.019745 375.805969,70.372078 
	C347.075226,70.573875 324.977081,87.322174 317.899017,115.022026 
	C315.754913,123.413086 312.033325,127.400986 304.774200,131.215454 
	C286.239410,140.954971 275.255035,156.688110 272.845154,177.755402 
	C272.295380,182.561478 270.307190,184.965195 265.785370,186.572372 
	C238.632996,196.223007 225.565186,217.072708 221.171631,244.276428 
	C218.847702,258.665558 220.243073,273.100555 222.138336,287.484589 
	C225.550430,313.380463 228.612793,339.323456 232.167465,365.199188 
	C234.902802,385.110809 237.854233,405.004272 241.298599,424.803314 
	C244.065063,440.705627 246.867645,456.690430 251.193588,472.209503 
	C256.258850,490.380951 266.346863,505.630249 283.502014,514.932007 
	C298.266235,522.937439 314.300507,526.387146 331.392242,527.085205 
	C331.931732,527.073486 332.471191,527.061768 333.876312,527.130859 
z"/>
<path fill="#1C274C" opacity="1.000000" stroke="none" 
	d="
M568.993225,527.039001 
	C555.022217,527.430847 541.051025,528.160706 527.080139,528.155945 
	C467.000153,528.135376 406.920227,527.911011 346.840393,527.716675 
	C342.518463,527.702698 338.197632,527.334412 333.251282,527.017822 
	C332.087341,526.914734 331.548431,526.924683 331.009552,526.934570 
	C314.300507,526.387146 298.266235,522.937439 283.502014,514.932007 
	C266.346863,505.630249 256.258850,490.380951 251.193588,472.209503 
	C246.867645,456.690430 244.065063,440.705627 241.298599,424.803314 
	C237.854233,405.004272 234.902802,385.110809 232.167465,365.199188 
	C228.612793,339.323456 225.550430,313.380463 222.138336,287.484589 
	C220.243073,273.100555 218.847702,258.665558 221.171631,244.276428 
	C225.565186,217.072708 238.632996,196.223007 265.785370,186.572372 
	C270.307190,184.965195 272.295380,182.561478 272.845154,177.755402 
	C275.255035,156.688110 286.239410,140.954971 304.774200,131.215454 
	C312.033325,127.400986 315.754913,123.413086 317.899017,115.022026 
	C324.977081,87.322174 347.075226,70.573875 375.805969,70.372078 
	C425.968475,70.019745 476.138062,69.961693 526.299133,70.406967 
	C551.783020,70.633186 570.483337,82.783890 581.145203,106.172981 
	C583.302673,110.905739 584.151978,116.360474 584.855225,121.583244 
	C585.275879,124.707718 586.339355,126.195976 589.221497,127.290627 
	C605.406006,133.437668 617.436401,144.287216 624.303833,160.227417 
	C626.706543,165.804504 628.171509,171.944138 629.038635,177.974411 
	C629.740417,182.854935 631.990234,185.037659 636.375305,186.650681 
	C652.815674,192.698074 665.669678,203.050613 673.224304,219.194824 
	C678.158386,229.739014 680.683838,240.888657 680.932861,252.555222 
	C681.626465,285.044006 676.127014,316.934845 671.589355,348.909576 
	C668.623108,369.811157 665.443115,390.684723 662.113647,411.531708 
	C659.204346,429.747742 656.798889,448.105743 652.632263,466.043640 
	C647.682312,487.353516 637.031616,505.348877 616.686707,515.936584 
	C602.650085,523.241333 587.491333,526.021545 571.233398,526.871704 
	C570.057739,526.899780 569.525513,526.969421 568.993225,527.039001 
M583.685242,178.169418 
	C585.470520,178.433990 587.255798,178.698547 589.887451,178.952774 
	C596.303772,178.837219 597.308960,177.245270 594.482727,171.639771 
	C594.108704,170.897949 593.668030,170.185959 593.214722,169.488342 
	C586.603760,159.313675 576.898804,155.278931 565.124146,155.286942 
	C545.631409,155.300186 526.138672,155.271179 506.645966,155.270386 
	C450.999939,155.268082 395.353912,155.273499 339.707886,155.268967 
	C332.140472,155.268341 324.622131,155.660568 318.121338,160.133743 
	C312.023773,164.329437 307.036957,169.413254 305.700867,177.807953 
	C307.933746,177.921219 309.547760,178.107727 311.156250,178.068207 
	C324.797791,177.733063 338.437592,177.079544 352.079315,177.041306 
	C407.724945,176.885315 463.371277,176.818909 519.016968,176.922409 
	C540.336609,176.962067 561.655273,177.545013 583.685242,178.169418 
M546.496948,208.929138 
	C462.588135,209.989044 378.626617,205.970261 294.762451,211.909332 
	C269.413055,213.704514 254.673584,227.500015 253.047607,252.713028 
	C252.854813,255.702591 252.671707,258.729126 252.911377,261.704102 
	C254.098526,276.439209 255.055450,291.207031 256.794220,305.880280 
	C259.612793,329.665680 262.651886,353.435150 266.201477,377.120880 
	C269.872070,401.613770 274.176666,426.013702 278.409821,450.418549 
	C279.258820,455.313202 280.874969,460.098663 282.410919,464.845947 
	C287.571533,480.796265 298.610474,490.284760 315.048309,492.831512 
	C325.521393,494.454102 336.166473,495.754761 346.741119,495.805573 
	C413.560455,496.126801 480.382294,496.224426 547.201721,495.975464 
	C560.284119,495.926727 573.434692,494.596893 586.419800,492.857941 
	C603.583008,490.559509 614.856201,480.543488 619.867737,463.915253 
	C621.925537,457.087555 623.850220,450.152649 624.993286,443.129395 
	C627.961487,424.891754 630.449036,406.576050 633.153320,388.295197 
	C636.557678,365.281647 640.171204,342.297119 643.341003,319.251434 
	C645.469971,303.772827 647.708008,288.247955 648.530945,272.671631 
	C649.113464,261.644714 648.004639,250.417358 646.529846,239.429947 
	C645.454529,231.419525 640.791260,224.415710 633.481628,220.789139 
	C625.974487,217.064560 617.842896,213.251968 609.689697,212.440445 
	C589.046204,210.385712 568.237366,209.992233 546.496948,208.929138 
M358.554626,107.984627 
	C356.280029,110.620972 353.631378,113.023674 351.808533,115.942154 
	C347.982574,122.067741 348.998047,123.708328 356.136871,123.712753 
	C385.801636,123.731140 415.466400,123.723183 445.131165,123.722603 
	C478.962311,123.721947 512.793457,123.732933 546.624634,123.703827 
	C552.705688,123.698601 553.654236,122.262589 550.776733,116.991005 
	C545.448547,107.229843 537.148743,102.195625 525.956909,102.192787 
	C475.960327,102.180077 425.963745,102.196823 375.967163,102.176559 
	C369.759064,102.174042 364.136139,103.852577 358.554626,107.984627 
z"/>
<path fill="#2E4642" opacity="1.000000" stroke="none" 
	d="
M331.200897,527.009888 
	C331.548431,526.924683 332.087341,526.914734 332.818451,526.977417 
	C332.471191,527.061768 331.931732,527.073486 331.200897,527.009888 
z"/>
<path fill="#2E4642" opacity="1.000000" stroke="none" 
	d="
M569.190796,527.092041 
	C569.525513,526.969421 570.057739,526.899780 570.788086,526.880249 
	C570.453613,527.001892 569.921021,527.073486 569.190796,527.092041 
z"/>
<path fill="#4D792D" opacity="1.000000" stroke="none" 
	d="
M546.995850,208.931244 
	C568.237366,209.992233 589.046204,210.385712 609.689697,212.440445 
	C617.842896,213.251968 625.974487,217.064560 633.481628,220.789139 
	C640.791260,224.415710 645.454529,231.419525 646.529846,239.429947 
	C648.004639,250.417358 649.113464,261.644714 648.530945,272.671631 
	C647.708008,288.247955 645.469971,303.772827 643.341003,319.251434 
	C640.171204,342.297119 636.557678,365.281647 633.153320,388.295197 
	C630.449036,406.576050 627.961487,424.891754 624.993286,443.129395 
	C623.850220,450.152649 621.925537,457.087555 619.867737,463.915253 
	C614.856201,480.543488 603.583008,490.559509 586.419800,492.857941 
	C573.434692,494.596893 560.284119,495.926727 547.201721,495.975464 
	C480.382294,496.224426 413.560455,496.126801 346.741119,495.805573 
	C336.166473,495.754761 325.521393,494.454102 315.048309,492.831512 
	C298.610474,490.284760 287.571533,480.796265 282.410919,464.845947 
	C280.874969,460.098663 279.258820,455.313202 278.409821,450.418549 
	C274.176666,426.013702 269.872070,401.613770 266.201477,377.120880 
	C262.651886,353.435150 259.612793,329.665680 256.794220,305.880280 
	C255.055450,291.207031 254.098526,276.439209 252.911377,261.704102 
	C252.671707,258.729126 252.854813,255.702591 253.047607,252.713028 
	C254.673584,227.500015 269.413055,213.704514 294.762451,211.909332 
	C378.626617,205.970261 462.588135,209.989044 546.995850,208.931244 
M401.345886,281.850952 
	C394.985931,288.860199 392.249023,297.250916 392.127411,306.558777 
	C392.016449,315.052643 392.077576,323.548889 392.082184,332.044098 
	C392.093628,353.198730 392.174164,374.353546 392.118927,395.507996 
	C392.054169,420.312164 419.072968,441.345001 444.465515,424.610229 
	C467.402893,409.493530 491.318115,395.869446 514.500000,381.112518 
	C537.019226,366.777405 537.177002,334.756287 514.714661,320.375671 
	C491.011017,305.200409 466.967255,290.544800 442.848114,276.034454 
	C428.363037,267.320129 413.988159,269.493988 401.345886,281.850952 
z"/>
<path fill="#4D792D" opacity="1.000000" stroke="none" 
	d="
M582.974365,177.880386 
	C561.655273,177.545013 540.336609,176.962067 519.016968,176.922409 
	C463.371277,176.818909 407.724945,176.885315 352.079315,177.041306 
	C338.437592,177.079544 324.797791,177.733063 311.156250,178.068207 
	C309.547760,178.107727 307.933746,177.921219 305.700867,177.807953 
	C307.036957,169.413254 312.023773,164.329437 318.121338,160.133743 
	C324.622131,155.660568 332.140472,155.268341 339.707886,155.268967 
	C395.353912,155.273499 450.999939,155.268082 506.645966,155.270386 
	C526.138672,155.271179 545.631409,155.300186 565.124146,155.286942 
	C576.898804,155.278931 586.603760,159.313675 593.214722,169.488342 
	C593.668030,170.185959 594.108704,170.897949 594.482727,171.639771 
	C597.308960,177.245270 596.303772,178.837219 589.201050,178.782150 
	C586.667908,178.367813 584.821167,178.124100 582.974365,177.880386 
z"/>
<path fill="#4D792D" opacity="1.000000" stroke="none" 
	d="
M358.842896,107.765312 
	C364.136139,103.852577 369.759064,102.174042 375.967163,102.176559 
	C425.963745,102.196823 475.960327,102.180077 525.956909,102.192787 
	C537.148743,102.195625 545.448547,107.229843 550.776733,116.991005 
	C553.654236,122.262589 552.705688,123.698601 546.624634,123.703827 
	C512.793457,123.732933 478.962311,123.721947 445.131165,123.722603 
	C415.466400,123.723183 385.801636,123.731140 356.136871,123.712753 
	C348.998047,123.708328 347.982574,122.067741 351.808533,115.942154 
	C353.631378,113.023674 356.280029,110.620972 358.842896,107.765312 
z"/>
<path fill="#2D4444" opacity="1.000000" stroke="none" 
	d="
M583.329834,178.024902 
	C584.821167,178.124100 586.667908,178.367813 588.777893,178.787323 
	C587.255798,178.698547 585.470520,178.433990 583.329834,178.024902 
z"/>
<path fill="#1C284C" opacity="1.000000" stroke="none" 
	d="
M401.588867,281.590454 
	C413.988159,269.493988 428.363037,267.320129 442.848114,276.034454 
	C466.967255,290.544800 491.011017,305.200409 514.714661,320.375671 
	C537.177002,334.756287 537.019226,366.777405 514.500000,381.112518 
	C491.318115,395.869446 467.402893,409.493530 444.465515,424.610229 
	C419.072968,441.345001 392.054169,420.312164 392.118927,395.507996 
	C392.174164,374.353546 392.093628,353.198730 392.082184,332.044098 
	C392.077576,323.548889 392.016449,315.052643 392.127411,306.558777 
	C392.249023,297.250916 394.985931,288.860199 401.588867,281.590454 
M446.953888,385.442444 
	C462.974457,375.584198 479.015839,365.759460 495.004089,355.849030 
	C500.397217,352.506042 500.531067,348.880432 495.251312,345.602051 
	C473.330902,331.991089 451.353363,318.471771 429.353485,304.989502 
	C425.596466,302.687012 424.224548,303.410889 424.211517,307.875153 
	C424.128326,336.342072 424.125031,364.809479 424.218658,393.276337 
	C424.234039,397.957214 425.577515,398.545380 429.755615,396.045715 
	C435.326294,392.712830 440.808655,389.232330 446.953888,385.442444 
z"/>
<path fill="#4D782D" opacity="1.000000" stroke="none" 
	d="
M446.641418,385.628845 
	C440.808655,389.232330 435.326294,392.712830 429.755615,396.045715 
	C425.577515,398.545380 424.234039,397.957214 424.218658,393.276337 
	C424.125031,364.809479 424.128326,336.342072 424.211517,307.875153 
	C424.224548,303.410889 425.596466,302.687012 429.353485,304.989502 
	C451.353363,318.471771 473.330902,331.991089 495.251312,345.602051 
	C500.531067,348.880432 500.397217,352.506042 495.004089,355.849030 
	C479.015839,365.759460 462.974457,375.584198 446.641418,385.628845 
z"/>
</svg>

<svg xmlns="http://www.w3.org/2000/svg" viewBox="0 0 900 600" xml:space="preserve"><path fill="#4D792D" d="M655 601H1V1h900v600H655m-321.124-73.87c4.322.204 8.642.573 12.964.587 60.08.194 120.16.418 180.24.439 13.971.005 27.942-.725 42.308-1.011.533-.072 1.066-.143 2.489-.232 15.614-.891 30.773-3.672 44.81-10.976 20.345-10.588 30.995-28.583 35.945-49.893 4.167-17.938 6.572-36.296 9.482-54.512 3.33-20.847 6.51-41.72 9.475-62.622 4.538-31.975 10.037-63.866 9.344-96.355-.25-11.666-2.775-22.816-7.709-33.36-7.554-16.144-20.408-26.497-36.849-32.544-4.385-1.613-6.635-3.796-7.336-8.677-.867-6.03-2.332-12.17-4.735-17.747-6.868-15.94-18.898-26.79-35.083-32.936-2.882-1.095-3.945-2.583-4.366-5.708-.703-5.223-1.552-10.677-3.71-15.41-10.662-23.39-29.362-35.54-54.846-35.766-50.16-.445-100.33-.387-150.493-.035-28.73.202-50.829 16.95-57.907 44.65-2.144 8.391-5.866 12.379-13.125 16.193-18.535 9.74-29.519 25.473-31.929 46.54-.55 4.806-2.538 7.21-7.06 8.817-27.152 9.651-40.22 30.5-44.613 57.704-2.324 14.39-.929 28.825.966 43.209 3.412 25.895 6.475 51.838 10.03 77.714 2.735 19.912 5.686 39.805 9.13 59.604 2.767 15.903 5.57 31.887 9.896 47.407 5.065 18.171 15.153 33.42 32.308 42.722 14.764 8.005 30.799 11.455 47.89 12.153.54-.012 1.08-.023 2.484.046z"/><path fill="#1C274C" d="M568.993 527.039c-13.97.392-27.942 1.122-41.913 1.117-60.08-.02-120.16-.245-180.24-.44-4.322-.013-8.642-.382-13.589-.698-1.164-.103-1.703-.093-2.241-.083-16.71-.548-32.744-3.998-47.508-12.003-17.155-9.302-27.243-24.551-32.308-42.722-4.326-15.52-7.129-31.504-9.895-47.407-3.445-19.799-6.396-39.692-9.132-59.604-3.554-25.876-6.617-51.819-10.029-77.714-1.895-14.384-3.29-28.82-.966-43.209 4.393-27.203 17.461-48.053 44.613-57.704 4.522-1.607 6.51-4.01 7.06-8.817 2.41-21.067 13.394-36.8 31.93-46.54 7.258-3.814 10.98-7.802 13.124-16.193 7.078-27.7 29.176-44.448 57.907-44.65 50.162-.352 100.332-.41 150.493.035 25.484.226 44.184 12.377 54.846 35.766 2.158 4.733 3.007 10.187 3.71 15.41.42 3.125 1.484 4.613 4.366 5.708 16.185 6.147 28.215 16.996 35.083 32.936 2.403 5.578 3.868 11.717 4.735 17.747.701 4.88 2.951 7.064 7.336 8.677 16.44 6.047 29.295 16.4 36.85 32.544 4.933 10.544 7.459 21.694 7.708 33.36.693 32.489-4.806 64.38-9.344 96.355-2.966 20.901-6.146 41.775-9.475 62.622-2.91 18.216-5.315 36.574-9.482 54.512-4.95 21.31-15.6 39.305-35.945 49.893-14.037 7.304-29.196 10.085-45.454 10.935-1.175.028-1.707.097-2.24.167m14.692-348.87c1.786.265 3.57.53 6.202.784 6.417-.116 7.422-1.708 4.596-7.313-.374-.742-.815-1.454-1.268-2.152-6.611-10.174-16.316-14.21-28.09-14.201-19.494.013-38.986-.016-58.479-.017-55.646-.002-111.292.003-166.938-.001-7.568 0-15.086.392-21.587 4.865-6.097 4.195-11.084 9.28-12.42 17.674 2.233.113 3.847.3 5.455.26 13.642-.335 27.282-.988 40.923-1.027 55.646-.156 111.292-.222 166.938-.119 21.32.04 42.638.623 64.668 1.247m-37.188 30.76c-83.909 1.06-167.87-2.959-251.735 2.98-25.349 1.796-40.088 15.591-41.714 40.804-.193 2.99-.376 6.016-.137 8.991 1.188 14.735 2.144 29.503 3.883 44.176 2.819 23.786 5.858 47.555 9.407 71.24 3.671 24.494 7.976 48.894 12.209 73.299.849 4.894 2.465 9.68 4 14.427 5.162 15.95 16.2 25.439 32.638 27.986 10.473 1.622 21.118 2.923 31.693 2.974 66.82.32 133.641.418 200.46.17 13.083-.05 26.234-1.38 39.219-3.118 17.163-2.298 28.436-12.315 33.448-28.943 2.058-6.827 3.982-13.762 5.125-20.786 2.968-18.237 5.456-36.553 8.16-54.834 3.405-23.013 7.018-45.998 10.188-69.044 2.129-15.478 4.367-31.003 5.19-46.58.582-11.026-.526-22.254-2.001-33.241-1.075-8.01-5.739-15.014-13.048-18.64-7.508-3.725-15.64-7.538-23.792-8.35-20.644-2.054-41.453-2.448-63.193-3.51M358.555 107.984c-2.275 2.636-4.924 5.039-6.746 7.957-3.826 6.126-2.811 7.766 4.328 7.77 29.665.02 59.33.011 88.994.01 33.831 0 67.662.01 101.494-.018 6.08-.005 7.03-1.441 4.152-6.713-5.328-9.761-13.628-14.795-24.82-14.798-49.997-.013-99.993.004-149.99-.016-6.208-.003-11.83 1.676-17.412 5.808z"/><path fill="#2E4642" d="M331.2 527.01c.348-.085.887-.095 1.618-.033-.347.085-.886.096-1.617.033zM569.19 527.092c.336-.123.868-.192 1.598-.212-.334.122-.867.193-1.597.212z"/><path fill="#4D792D" d="M546.996 208.931c21.241 1.061 42.05 1.455 62.694 3.51 8.153.811 16.284 4.624 23.792 8.348 7.31 3.627 11.973 10.63 13.048 18.64 1.475 10.988 2.583 22.216 2 33.243-.822 15.576-3.06 31.1-5.189 46.58-3.17 23.045-6.783 46.03-10.188 69.043-2.704 18.281-5.192 36.597-8.16 54.834-1.143 7.024-3.067 13.959-5.125 20.786-5.012 16.628-16.285 26.645-33.448 28.943-12.985 1.739-26.136 3.069-39.218 3.117-66.82.25-133.642.152-200.46-.17-10.576-.05-21.22-1.35-31.694-2.973-16.438-2.547-27.476-12.036-32.637-27.986-1.536-4.747-3.152-9.533-4.001-14.427-4.233-24.405-8.538-48.805-12.209-73.298-3.55-23.686-6.588-47.455-9.407-71.24-1.739-14.674-2.695-29.442-3.883-44.177-.24-2.975-.056-6.001.137-8.991 1.626-25.213 16.365-39.008 41.714-40.804 83.865-5.939 167.826-1.92 252.234-2.978m-145.65 72.92c-6.36 7.01-9.097 15.4-9.219 24.708-.11 8.494-.05 16.99-.045 25.485.012 21.155.092 42.31.037 63.464-.065 24.804 26.954 45.837 52.347 29.102 22.937-15.116 46.852-28.74 70.034-43.497 22.52-14.336 22.677-46.357.215-60.737-23.704-15.176-47.748-29.831-71.867-44.342-14.485-8.714-28.86-6.54-41.502 5.817zM582.974 177.88c-21.319-.335-42.637-.918-63.957-.958-55.646-.103-111.292-.037-166.938.12-13.641.038-27.281.691-40.923 1.026-1.608.04-3.222-.147-5.455-.26 1.336-8.395 6.323-13.479 12.42-17.674 6.501-4.473 14.02-4.866 21.587-4.865 55.646.004 111.292 0 166.938.001 19.493.001 38.985.03 58.478.017 11.775-.008 21.48 4.027 28.09 14.201.454.698.895 1.41 1.269 2.152 2.826 5.605 1.82 7.197-5.282 7.142-2.533-.414-4.38-.658-6.227-.902zM358.843 107.765c5.293-3.912 10.916-5.591 17.124-5.588 49.997.02 99.993.003 149.99.016 11.192.003 19.492 5.037 24.82 14.798 2.877 5.272 1.929 6.708-4.152 6.713-33.832.029-67.663.018-101.494.019-29.665 0-59.33.008-88.994-.01-7.139-.005-8.154-1.645-4.328-7.77 1.822-2.92 4.471-5.322 7.034-8.178z"/><path fill="#2D4444" d="M583.33 178.025c1.491.1 3.338.343 5.448.762-1.522-.088-3.307-.353-5.448-.762z"/><path fill="#1C284C" d="M401.589 281.59c12.4-12.096 26.774-14.27 41.26-5.556 24.118 14.51 48.162 29.166 71.866 44.342 22.462 14.38 22.304 46.401-.215 60.737-23.182 14.756-47.097 28.38-70.034 43.497-25.393 16.735-52.412-4.298-52.347-29.102.055-21.154-.025-42.31-.037-63.464-.004-8.495-.066-16.991.045-25.485.122-9.308 2.859-17.699 9.462-24.969m45.365 103.852c16.02-9.858 32.062-19.683 48.05-29.593 5.393-3.343 5.527-6.969.247-10.247-21.92-13.61-43.898-27.13-65.898-40.612-3.757-2.303-5.128-1.58-5.141 2.885-.084 28.467-.087 56.934.007 85.401.015 4.681 1.359 5.27 5.537 2.77 5.57-3.333 11.053-6.814 17.198-10.604z"/><path fill="#4D782D" d="M446.641 385.629c-5.832 3.603-11.315 7.084-16.885 10.417-4.178 2.5-5.522 1.911-5.537-2.77-.094-28.467-.09-56.934-.007-85.4.013-4.465 1.384-5.189 5.141-2.886 22 13.482 43.978 27.001 65.898 40.612 5.28 3.278 5.146 6.904-.247 10.247-15.988 9.91-32.03 19.735-48.363 29.78z"/></svg>
